icons/goland-light.svg

<svg xmlns="http://www.w3.org/2000/svg" xmlns:xlink="http://www.w3.org/1999/xlink" width="256" height="256" viewBox="0 0 256 256" fill="none">
<rect  x="0" y="0" width="256" height="256" rx="55"    fill="#F4F2ED" >
</rect>
<path d="M197.312 107.394L219 155.488L181.878 219L159.017 163.488L197.312 107.394Z"   fill="url(#linear_0)" >
</path>
<path d="M159.017 163.488L181.877 219L124.361 199.225L159.017 163.488Z"   fill="#B74AF7" >
</path>
<path d="M165.214 88.3975L153.423 37L88.0331 37L37 115.071L51.7675 150.938L37 183.681L142.694 93.7627L165.214 88.3975Z"   fill="url(#linear_1)" >
</path>
<path d="M219 75.6344L142.694 93.7612L37 183.68L105.177 219L159.017 163.488L219 75.6344Z"   fill="url(#linear_2)" >
</path>
<path d="M71.1289 71.1276L184.871 71.1276L184.871 184.871L71.1289 184.871L71.1289 71.1276Z"   fill="#000000" >
</path>
<path d="M81.8017 163.542L124.453 163.542L124.453 170.657L81.8017 170.657L81.8017 163.542ZM78.5935 109.628L78.5935 109.496C78.5911 108.695 78.6285 107.896 78.7058 107.099C78.783 106.302 78.8997 105.51 79.0558 104.725C79.212 103.939 79.4068 103.163 79.6403 102.397C79.8738 101.631 80.1449 100.878 80.4534 100.139C80.762 99.4 81.1065 98.6781 81.487 97.9733C81.8676 97.2685 82.2822 96.5844 82.7309 95.921C83.1797 95.2576 83.6604 94.6181 84.1728 94.0027C84.6854 93.3872 85.2273 92.7987 85.7984 92.2372C86.3702 91.6762 86.9684 91.145 87.593 90.6436C88.2177 90.1422 88.8657 89.6731 89.5371 89.2364C90.2085 88.7996 90.9 88.3972 91.6115 88.0294C92.323 87.6616 93.0511 87.33 93.7957 87.0347C94.5403 86.7393 95.2977 86.4818 96.0679 86.262C96.838 86.0422 97.6173 85.8612 98.4057 85.7191C99.1939 85.5769 99.9873 85.4743 100.786 85.4113C101.584 85.3483 102.384 85.3251 103.185 85.3416C104.019 85.298 104.853 85.2948 105.687 85.3322C106.522 85.3694 107.352 85.4469 108.179 85.5647C109.006 85.6825 109.825 85.8401 110.637 86.0373C111.448 86.2346 112.249 86.4706 113.037 86.7455C113.826 87.0203 114.6 87.3326 115.358 87.6824C116.116 88.0324 116.856 88.4181 117.577 88.8398C118.298 89.2613 118.997 89.7168 119.674 90.2061C120.351 90.6955 121.002 91.2165 121.629 91.769L115.128 99.6179C114.721 99.2287 114.296 98.8602 113.853 98.5125C113.409 98.1648 112.95 97.8396 112.475 97.5368C112 97.2338 111.512 96.9548 111.009 96.6996C110.507 96.4445 109.994 96.2144 109.469 96.0093C108.944 95.8043 108.411 95.6254 107.869 95.4725C107.327 95.3194 106.778 95.1932 106.224 95.0938C105.669 94.9945 105.111 94.9223 104.55 94.8773C103.989 94.8324 103.426 94.8149 102.863 94.8249C95.2816 94.8249 89.383 101.459 89.383 109.423L89.383 109.551C89.383 118.14 95.2816 124.433 103.605 124.433C107.054 124.536 110.45 123.547 113.306 121.609L113.306 114.86L102.917 114.86L102.917 105.954L123.262 105.954L123.262 126.31C122.574 126.907 121.86 127.472 121.121 128.005C120.383 128.538 119.622 129.037 118.838 129.502C118.055 129.967 117.252 130.395 116.43 130.788C115.608 131.181 114.77 131.536 113.916 131.853C113.063 132.171 112.196 132.45 111.318 132.689C110.439 132.929 109.551 133.129 108.654 133.29C107.758 133.45 106.856 133.569 105.948 133.649C105.041 133.728 104.131 133.766 103.221 133.764C88.6412 133.764 78.5935 123.503 78.5935 109.628ZM127.624 109.628L127.624 109.496C127.626 108.688 127.669 107.882 127.752 107.078C127.835 106.274 127.959 105.477 128.121 104.685C128.284 103.894 128.486 103.112 128.728 102.341C128.969 101.569 129.248 100.812 129.565 100.069C129.882 99.3252 130.235 98.5995 130.624 97.8915C131.014 97.1835 131.438 96.4966 131.896 95.8309C132.355 95.1653 132.845 94.5242 133.367 93.9077C133.89 93.2911 134.442 92.7021 135.023 92.1407C135.604 91.5792 136.212 91.0481 136.847 90.5475C137.481 90.0467 138.139 89.5788 138.82 89.1438C139.502 88.7089 140.203 88.309 140.924 87.944C141.645 87.5791 142.383 87.251 143.137 86.9598C143.891 86.6685 144.658 86.4156 145.437 86.201C146.216 85.9864 147.004 85.8112 147.801 85.6754C148.598 85.5396 149.399 85.4438 150.206 85.388C151.012 85.3322 151.819 85.3168 152.627 85.3416C167.09 85.3416 177.478 96.1312 177.478 109.459L177.478 109.593C177.479 109.997 177.469 110.402 177.45 110.806C177.43 111.211 177.4 111.614 177.36 112.017C177.321 112.42 177.271 112.822 177.211 113.222C177.151 113.623 177.081 114.021 177.001 114.418C176.921 114.815 176.831 115.21 176.731 115.602C176.631 115.994 176.522 116.384 176.403 116.771C176.284 117.158 176.155 117.542 176.016 117.922C175.878 118.302 175.73 118.679 175.572 119.052C175.415 119.425 175.248 119.794 175.073 120.159C174.897 120.523 174.712 120.884 174.518 121.239C174.324 121.594 174.121 121.945 173.91 122.29C173.699 122.635 173.479 122.975 173.25 123.309C173.022 123.643 172.785 123.972 172.54 124.294C172.295 124.616 172.042 124.932 171.781 125.242C171.521 125.552 171.252 125.855 170.977 126.151C170.7 126.447 170.417 126.736 170.127 127.018C169.836 127.3 169.539 127.575 169.235 127.842C168.931 128.109 168.62 128.369 168.303 128.62C167.986 128.872 167.662 129.115 167.333 129.351C167.003 129.586 166.668 129.813 166.328 130.032C165.987 130.25 165.641 130.46 165.29 130.661C164.938 130.863 164.582 131.055 164.221 131.238C163.86 131.422 163.495 131.596 163.125 131.761C162.756 131.926 162.382 132.082 162.005 132.228C161.627 132.375 161.246 132.511 160.862 132.639C160.478 132.766 160.09 132.884 159.7 132.991C159.31 133.099 158.917 133.197 158.522 133.285C158.127 133.374 157.73 133.452 157.331 133.52C156.932 133.589 156.531 133.647 156.129 133.695C155.727 133.743 155.324 133.781 154.92 133.809C154.517 133.837 154.112 133.855 153.707 133.863C153.303 133.871 152.898 133.868 152.493 133.856C138.01 133.764 127.624 122.976 127.624 109.628ZM166.689 109.628L166.689 109.496C166.703 109.022 166.694 108.548 166.662 108.074C166.629 107.601 166.573 107.13 166.493 106.662C166.413 106.194 166.31 105.732 166.184 105.274C166.058 104.817 165.909 104.367 165.738 103.924C165.567 103.481 165.374 103.048 165.16 102.625C164.945 102.201 164.71 101.79 164.454 101.39C164.198 100.99 163.923 100.604 163.629 100.232C163.334 99.8598 163.022 99.5032 162.692 99.1622C162.362 98.8209 162.016 98.497 161.653 98.1904C161.291 97.8837 160.914 97.596 160.523 97.3271C160.132 97.0582 159.728 96.8095 159.312 96.581C158.896 96.3526 158.469 96.1454 158.032 95.9595C157.595 95.7738 157.15 95.6102 156.697 95.469C156.244 95.3279 155.785 95.2096 155.32 95.1143C154.855 95.019 154.386 94.9472 153.914 94.8989C153.441 94.8505 152.968 94.8258 152.493 94.8249C152.022 94.8235 151.552 94.8456 151.083 94.8915C150.614 94.9373 150.149 95.0065 149.687 95.0991C149.225 95.1918 148.769 95.3073 148.318 95.4457C147.868 95.5842 147.426 95.745 146.992 95.928C146.558 96.111 146.134 96.3153 145.72 96.5408C145.306 96.7664 144.905 97.0122 144.516 97.2781C144.127 97.5441 143.753 97.8289 143.393 98.1325C143.032 98.4362 142.688 98.7571 142.36 99.0953C142.033 99.4341 141.723 99.7884 141.431 100.158C141.139 100.528 140.867 100.912 140.614 101.309C140.361 101.706 140.128 102.116 139.916 102.536C139.704 102.957 139.514 103.387 139.345 103.827C139.177 104.267 139.031 104.715 138.907 105.169C138.783 105.624 138.683 106.084 138.606 106.549C138.529 107.013 138.475 107.481 138.445 107.951C138.415 108.421 138.408 108.892 138.426 109.362L138.426 109.496C138.409 109.972 138.417 110.448 138.448 110.924C138.479 111.4 138.534 111.872 138.613 112.343C138.692 112.813 138.794 113.277 138.919 113.737C139.045 114.197 139.193 114.65 139.364 115.095C139.534 115.54 139.727 115.975 139.941 116.401C140.155 116.826 140.39 117.24 140.646 117.643C140.902 118.045 141.177 118.433 141.472 118.808C141.767 119.182 142.079 119.541 142.41 119.884C142.74 120.228 143.087 120.554 143.451 120.862C143.814 121.171 144.192 121.46 144.585 121.731C144.977 122.001 145.382 122.251 145.8 122.481C146.218 122.711 146.646 122.919 147.084 123.106C147.523 123.293 147.969 123.457 148.425 123.599C148.88 123.741 149.341 123.86 149.808 123.956C150.274 124.051 150.745 124.123 151.219 124.172C151.694 124.22 152.169 124.244 152.646 124.245C153.118 124.246 153.589 124.223 154.059 124.176C154.529 124.13 154.996 124.059 155.458 123.966C155.921 123.872 156.378 123.755 156.829 123.615C157.28 123.475 157.723 123.313 158.158 123.128C158.593 122.944 159.017 122.738 159.431 122.51C159.845 122.283 160.246 122.035 160.636 121.767C161.024 121.499 161.399 121.212 161.759 120.907C162.119 120.601 162.462 120.278 162.79 119.937C163.117 119.597 163.427 119.241 163.719 118.869C164.01 118.497 164.282 118.112 164.535 117.713C164.787 117.314 165.019 116.903 165.23 116.48C165.441 116.057 165.63 115.625 165.797 115.183C165.964 114.741 166.109 114.292 166.231 113.835C166.352 113.379 166.451 112.917 166.526 112.451C166.601 111.985 166.652 111.515 166.679 111.044C166.707 110.572 166.71 110.1 166.69 109.628L166.689 109.628Z"   fill="#FFFFFF" >
</path>
<defs>
<linearGradient id="linear_0" x1="95.0102097998593%" y1="30.11519644724809%" x2="-23.660136067398234%" y2="83.89774748665855%" gradientUnits="objectBoundingBox">
<stop offset="0" stop-color="#087CFA"  />
<stop offset="0.02" stop-color="#0D7BFA"  />
<stop offset="0.37" stop-color="#5566F9"  />
<stop offset="0.66" stop-color="#8A57F8"  />
<stop offset="0.88" stop-color="#AB4EF7"  />
<stop offset="1" stop-color="#B74AF7"  />
</linearGradient>
<linearGradient id="linear_1" x1="48.76322759534719%" y1="38.552464098043735%" x2="82.53021966751865%" y2="5.092418093953626%" gradientUnits="objectBoundingBox">
<stop offset="0" stop-color="#087CFA"  />
<stop offset="0.02" stop-color="#0D7BFA"  />
<stop offset="0.37" stop-color="#5566F9"  />
<stop offset="0.66" stop-color="#8A57F8"  />
<stop offset="0.88" stop-color="#AB4EF7"  />
<stop offset="1" stop-color="#B74AF7"  />
</linearGradient>
<linearGradient id="linear_2" x1="13.7298301712204%" y1="83.98741985414895%" x2="85.94728057054375%" y2="25.30924138796631%" gradientUnits="objectBoundingBox">
<stop offset="0" stop-color="#087CFA"  />
<stop offset="0.1" stop-color="#1598D3"  />
<stop offset="0.22" stop-color="#23B6AA"  />
<stop offset="0.35" stop-color="#2DCC8B"  />
<stop offset="0.46" stop-color="#35DD74"  />
<stop offset="0.57" stop-color="#39E767"  />
<stop offset="0.67" stop-color="#3BEA62"  />
</linearGradient>
</defs>
</svg>

<svg xmlns="http://www.w3.org/2000/svg" width="256" height="256" fill="none"><rect width="256" height="256" fill="#F4F2ED" rx="55"/><path fill="url(#linear_0)" d="M197.312 107.394 219 155.488 181.878 219l-22.861-55.512z"/><path fill="#B74AF7" d="M159.017 163.488 181.877 219l-57.516-19.775z"/><path fill="url(#linear_1)" d="M165.214 88.398 153.423 37h-65.39L37 115.071l14.767 35.867L37 183.681l105.694-89.918z"/><path fill="url(#linear_2)" d="m219 75.634-76.306 18.127L37 183.68 105.177 219l53.84-55.512z"/><path fill="#000" d="M71.129 71.128H184.87V184.87H71.129z"/><path fill="#FFF" d="M81.802 163.542h42.651v7.115H81.802zm-3.209-53.914v-.132a24.1 24.1 0 0 1 1.86-9.357 24.1 24.1 0 0 1 5.345-7.902 24.1 24.1 0 0 1 10.27-5.975 24 24 0 0 1 7.117-.92 25.8 25.8 0 0 1 7.452.695 25.8 25.8 0 0 1 6.94 2.803 26 26 0 0 1 4.052 2.929l-6.501 7.849a17.3 17.3 0 0 0-12.265-4.793c-7.581 0-13.48 6.634-13.48 14.598v.128c0 8.589 5.899 14.882 14.222 14.882a16.4 16.4 0 0 0 9.701-2.824v-6.749h-10.389v-8.906h20.345v20.356a30.4 30.4 0 0 1-4.424 3.192 30.4 30.4 0 0 1-7.52 3.187q-1.318.36-2.664.601a30.7 30.7 0 0 1-5.433.474c-14.58 0-24.627-10.261-24.627-24.136m49.031 0v-.132a24.1 24.1 0 0 1 1.104-7.155q.362-1.158.837-2.272a24.3 24.3 0 0 1 2.331-4.238q.688-.999 1.471-1.923a24.4 24.4 0 0 1 3.48-3.36 24.2 24.2 0 0 1 6.29-3.588 24.3 24.3 0 0 1 9.49-1.618c14.463 0 24.851 10.79 24.851 24.117v.134a25 25 0 0 1-.118 2.424 23 23 0 0 1-.359 2.401 24 24 0 0 1-.598 2.353q-.178.58-.387 1.151-.207.57-.444 1.13-.236.56-.499 1.107a24.4 24.4 0 0 1-2.533 4.135 24.6 24.6 0 0 1-2.413 2.724 25 25 0 0 1-1.824 1.602 25 25 0 0 1-1.975 1.412 25 25 0 0 1-2.107 1.206 23 23 0 0 1-2.216.99 25 25 0 0 1-2.305.763 24 24 0 0 1-2.369.529 23 23 0 0 1-2.411.289 25 25 0 0 1-2.427.047c-14.483-.092-24.869-10.88-24.869-24.228m39.065 0v-.132a14.3 14.3 0 0 0-1.529-6.871 14.2 14.2 0 0 0-3.507-4.435 14.2 14.2 0 0 0-3.621-2.23 14.3 14.3 0 0 0-4.118-1.061 14.2 14.2 0 0 0-5.596.547 14 14 0 0 0-4.925 2.686 13.9 13.9 0 0 0-4.048 5.695q-.252.66-.438 1.342a14 14 0 0 0-.462 2.782q-.046.706-.019 1.411v.134a14.2 14.2 0 0 0 .493 4.241 14.4 14.4 0 0 0 1.727 3.906 14.3 14.3 0 0 0 2.805 3.219 14 14 0 0 0 2.349 1.619 14.4 14.4 0 0 0 2.625 1.118 14.3 14.3 0 0 0 2.794.573 14.5 14.5 0 0 0 2.84.004 14 14 0 0 0 7.7-3.269 14.1 14.1 0 0 0 3.471-4.427 14 14 0 0 0 1.001-2.645q.182-.684.295-1.384a14 14 0 0 0 .164-2.823z"/><defs><linearGradient id="linear_0" x1="95.01%" x2="-23.66%" y1="30.115%" y2="83.898%" gradientUnits="objectBoundingBox"><stop offset="0" stop-color="#087CFA"/><stop offset=".02" stop-color="#0D7BFA"/><stop offset=".37" stop-color="#5566F9"/><stop offset=".66" stop-color="#8A57F8"/><stop offset=".88" stop-color="#AB4EF7"/><stop offset="1" stop-color="#B74AF7"/></linearGradient><linearGradient id="linear_1" x1="48.763%" x2="82.53%" y1="38.552%" y2="5.092%" gradientUnits="objectBoundingBox"><stop offset="0" stop-color="#087CFA"/><stop offset=".02" stop-color="#0D7BFA"/><stop offset=".37" stop-color="#5566F9"/><stop offset=".66" stop-color="#8A57F8"/><stop offset=".88" stop-color="#AB4EF7"/><stop offset="1" stop-color="#B74AF7"/></linearGradient><linearGradient id="linear_2" x1="13.73%" x2="85.947%" y1="83.987%" y2="25.309%" gradientUnits="objectBoundingBox"><stop offset="0" stop-color="#087CFA"/><stop offset=".1" stop-color="#1598D3"/><stop offset=".22" stop-color="#23B6AA"/><stop offset=".35" stop-color="#2DCC8B"/><stop offset=".46" stop-color="#35DD74"/><stop offset=".57" stop-color="#39E767"/><stop offset=".67" stop-color="#3BEA62"/></linearGradient></defs></svg>
